!!!OTL: Der Meierin Sohn Ich geh auf Gassen, ich geh auf Strassen,
!!!ARE: Europa, Suedosteuropa, Rumaenien, Siebenbuergen
!!!YOR: 4, S. 248
!!    1931 gedruckt in Herrmannstadt
!!!SCT: Q1083B
!!!YEM: Copyright 1995, estate of Helmut Schaffrath.
**kern
*ICvox
*Ivox
*M3/4
*k[b-]
*F:
{4c
=1
2f
4f
=2
4f
4e
4f
=3
4g
4a
4g
=4
4f
4f}
{4g
=5
4a
4g
4a
=6
4b-
4a
8g
8f
=7
4a
4a
4g
=8
4f
4f}
==
!!!AGN: Abschieds - Lied
!! Melodievergleich zu Q0083, anderes Lied.
!!!ONB: ESAC (Essen Associative Code) Database: BALLADE
!!!AMT: simple triple
!!!AIN: vox
!!!EED: Helmut Schaffrath
!!!EEV: 1.0
*-
